X:1
T:Middletown, 84.84
T:C. T. W., arranged by Karl P. Harrington, 1905
T:Middletown, 84.84
T:Public Domain
C:C. T. W., arranged by Karl P. Harrington, 1905
Z:Public Domain
%%score ( 1 2 ) ( 3 4 )
L:1/8
M:3/4
K:Eb
V:1 treble 
V:2 treble 
V:3 bass 
V:4 bass 
V:1
 [EG][EG] [EG] | [EA]3 [EG] [EG][EF] | [DF]3 [DG] [DF][Dc] | [EB]3 [EB] [EB][=EB] | %4
 [Ad]3 [AB] [Ge][EG] | [EF]3 C [B,D][DF] | E3 |] %7
V:2
 x3 | x6 | x6 | x6 | x6 | x3 C x2 | E3 |] %7
V:3
 [E,B,][E,B,] [E,B,] | [E,C]3 [E,B,] [C,=A,][C,A,] | [B,,B,]3 [B,,B,] B,[A,B,] | %3
 [G,B,]3 [G,B,] [_G,C][G,^C] | [F,B,D]3 [B,D] [E,B,][E,=B,] | [A,C]3 [A,,A,] [B,,A,][B,,A,] | %6
 [E,G,]3 |] %7
V:4
 x3 | x6 | x4 B, x | x6 | x6 | x6 | x3 |] %7

